X:1
T:Der Entfernten
T:Franz Schubert
T:Johann Gaudenz von Salis-Seewis
T:Der Entfernten, D.331
T:CPDL   —   Creative Commons Attribution Non Commercial 3.0
T:CPDL   —   Creative Commons Attribution Non Commercial 3.0
C:Franz Schubert
Z:Johann Gaudenz von Salis-Seewis
Z:CPDL   —   Creative Commons Attribution Non Commercial 3.0
%%score [ ( 1 2 ) ( 3 4 ) ]
L:1/8
Q:1/4=80
M:6/8
K:C#
V:1 treble-8 nm="Tenor"
V:2 treble-8 
V:3 bass nm="Bass"
V:4 bass 
V:1
"^Langsam"!pp! e | e2 e!<(! e2 e!<)! |!>(! (e2!>)! f) d2 d | e2 d c2 f | %4
w: 1. Wohl|denk ich al- lent-|hal- * ben, o|du Ent- fern- te|
w: 2.   Es|folgt in al- le|Wei- * te dein|trau- tes Bild mir|
!<(! (d3!<)!!>(! ^^d2)!>)!!pp! e | e2 e!<(! e2 e!<)! |!>(! (e2 g/f/)!>)! d2!pp! =e | d2 d d2 d | %8
w: dein, _ früh,|wenn die Wol- ken|fal- * * ben und|spät im Ster- nen-|
w: nach, _ es|wallt mir stets zur|Sei- * * te, in|Träu- men o- der|
 d3- d z!pp! d |!p! e2 e f2 d |!<(! g6-!<)! | g>gg!>(! g/f/e/f/ A/d/!>)! |!p! c2 d e2!pp! G | %13
w: schein. _ Im|Grund des Mor- gen-|gol-|* des, im ro- * * * ten _|A- bend- licht, um-|
w: wach. _ Wenn|Lüf- te sanft be-|strei-|* fen der See _ _ _ be- *|schilf- ten Strand, um-|
 e2 e f2 d |!<(! g6-!<)! | g>gg g/f/e/f/ A/d/ |!>(! c2 e/d/!>)! c2!pp! c | f3 e3 | %18
w: schwebst du mich, o|hol-|* des, ge- lieb- * * * tes *|Traum- ge- * sicht, um-|schwebst du|
w: flüs- tern mich die|Schlei-|* fen von sei- * * * nem *|Bu- sen- * band, um-|flüs- tern|
 d3-!<(! d2 =e!<)! |!>(! (=e6-!>)! | e2 =d-"^dim." d2 c- |!<(! c3/2^d/4c/4B/c/!<)!!>(! f2)!>)! B | %22
w: mich, _ um-|schwebst|_ _ _ _|* * * * * * du|
w: mich, _ um-|flüs-||* * * * * * tern|
!pp! c3- c2 |] %23
w: mich. _|
w: mich. _|
V:2
 c | c2 c cB=B | A3 ^B2 B | c2 B A2 d | B3- B2 c | c2 c cB=B | A3 ^B2 c | B2 =B A>^Bc | B3- B x G | %9
 c2 ^^c d2 G | e3 f2 d | e>=BB A2 A | G2 B c2 G | c2 ^^c d2 G | e3 f2 d | e>=BB A2 A | G2 B c2 c | %17
 c3 c3 | B3- B2 c | (c6 | =A3 =G3 | ^G3 B2) G | G3- G2 |] %23
V:3
!pp! G, | G,2 G,!<(! G,2 G,!<)! |!>(! (G,2!>)! F,) G,2 G, | G,2 ^^G, A,2 A, | %4
w: ||||
w: ||||
!<(! G,3-!<)!!>(! G,2!>)!!pp! G, | G,2 G,!<(! G,2 G,!<)! |!>(! (G,2 F,)!>)! G,2!pp! G, | %7
w: |||
w: |||
 G,2 G, ^^F,>G,A, | G,3- G, z z | z3 z2!p! G, |!<(! G,C=B, A,2 ^B,!<)! | =B,>E,E,!>(! F,C,D,!>)! | %12
w: ||Im|Grund _ des Mor- gen-|gol- des, * * * *|
w: ||Wenn|Lüf- * te sanft be-|strei- fen * * * *|
!p! E,2 G, G,3 | z3 z2!pp! G, |!<(! G,C=B, A,2 ^B,!<)! | =B,>E,E, F,C,D, | %16
w: |um-|schwebst * du mich, o|hol- des, * * * *|
w: |um-|flüs- * tern mich die|Schlei- fen * * * *|
!>(! E,2 G,/F,/!>)! E,2!pp! C, | F,3 G,3 | F,3-!<(! F,2 =E,/F,/!<)! |!>(! (=G,6!>)! | %20
w: ||||
w: ||||
 F,3"^dim." =E,3 |!<(! ^E,3!<)!!>(! D,2)!>)! F, |!pp! E,3- E,2 |] %23
w: |||
w: |||
V:4
 C, | C,2 C, C,2 C, | (^^C,2 D,) G,,2 G,, | ^C,2 E, F,2 D, | G,3- G,2 C, | C,2 C, C,2 C, | %6
 (^^C,2 D,) G,,2 ^C, | D,2 D, D,2 D, | G,,3- G,, x x | x3 x2 G,, | C,2 ^^C, D,2 G,, | %11
 C,>C,C, F,,2 F,, | G,,2 G,, C,3 | x3 x2 G,, | C,2 ^^C, D,2 G,, | C,>C,C, F,,2 F,, | %16
 G,,2 G,, C,2 C, | A,,3 C,3 | G,,3- G,,2 =A,, | (=A,,6- | A,,6 | G,,3- G,,2) G,, | C,3- C,2 |] %23

